symbols/web/play_for_work/materialsymbolsrounded/play_for_work_wght500gradN25_24px.svg

<svg xmlns="http://www.w3.org/2000/svg" height="24" width="24"><path d="M12 20.1q-2.25 0-3.912-1.388-1.663-1.387-2.063-3.512-.1-.475.225-.825t.85-.35q.375 0 .663.262.287.263.412.688.3 1.275 1.363 2.125 1.062.85 2.462.85 1.4 0 2.463-.85 1.062-.85 1.362-2.125.125-.425.413-.688.287-.262.662-.262.525 0 .85.35.325.35.225.825-.4 2.125-2.063 3.512Q14.25 20.1 12 20.1Zm0-5.625q-.2 0-.4-.075t-.35-.225l-2.65-2.65q-.325-.325-.325-.763 0-.437.325-.762t.763-.325q.437 0 .762.325l.8.8V5.95q0-.45.325-.762.325-.313.775-.313.425 0 .75.313.325.312.325.762v4.85l.8-.8q.3-.325.738-.312.437.012.737.337.325.3.338.737.012.438-.313.763l-2.65 2.65q-.15.15-.35.225-.2.075-.4.075Z"/></svg>

<svg xmlns="http://www.w3.org/2000/svg" height="24" width="24"><path d="M12 20.1Q9.75 20.1 8.088 18.712Q6.425 17.325 6.025 15.2Q5.925 14.725 6.25 14.375Q6.575 14.025 7.1 14.025Q7.475 14.025 7.763 14.287Q8.05 14.55 8.175 14.975Q8.475 16.25 9.538 17.1Q10.6 17.95 12 17.95Q13.4 17.95 14.463 17.1Q15.525 16.25 15.825 14.975Q15.95 14.55 16.238 14.287Q16.525 14.025 16.9 14.025Q17.425 14.025 17.75 14.375Q18.075 14.725 17.975 15.2Q17.575 17.325 15.912 18.712Q14.25 20.1 12 20.1ZM12 14.475Q11.8 14.475 11.6 14.4Q11.4 14.325 11.25 14.175L8.6 11.525Q8.275 11.2 8.275 10.762Q8.275 10.325 8.6 10Q8.925 9.675 9.363 9.675Q9.8 9.675 10.125 10L10.925 10.8V5.95Q10.925 5.5 11.25 5.188Q11.575 4.875 12.025 4.875Q12.45 4.875 12.775 5.188Q13.1 5.5 13.1 5.95V10.8L13.9 10Q14.2 9.675 14.638 9.688Q15.075 9.7 15.375 10.025Q15.7 10.325 15.713 10.762Q15.725 11.2 15.4 11.525L12.75 14.175Q12.6 14.325 12.4 14.4Q12.2 14.475 12 14.475Z"/></svg>
